modules/hawcons-stroke/icons/thermometer-quarter.svg

<?xml version="1.0" encoding="UTF-8" standalone="no"?>
<svg width="32px" height="32px" viewBox="0 0 32 32" version="1.1" xmlns="http://www.w3.org/2000/svg" xmlns:xlink="http://www.w3.org/1999/xlink" xmlns:sketch="http://www.bohemiancoding.com/sketch/ns">
    <!-- Generator: Sketch 3.0.3 (7891) - http://www.bohemiancoding.com/sketch -->
    <title>icon 68 thermometer quarter</title>
    <desc>Created with Sketch.</desc>
    <defs></defs>
    <g id="Page-1" stroke="none" stroke-width="1" fill="none" fill-rule="evenodd" sketch:type="MSPage">
        <g id="icon-68-thermometer-quarter" sketch:type="MSArtboardGroup" fill="#929292">
            <path d="M16.9863504,23.1659185 C18.1586673,23.5738762 19,24.6886862 19,26 C19,27.6568543 17.6568543,29 16,29 C14.3431457,29 13,27.6568543 13,26 C13,24.6885629 13.8414908,23.5736667 15.0139801,23.1658035 C15.0047837,23.1109462 15,23.0545736 15,22.9970707 L15,18.0029293 C15,17.4378814 15.4477153,17 16,17 C16.5561352,17 17,17.4490268 17,18.0029293 L17,22.9970707 C17,23.0547906 16.9953282,23.1111836 16.9863504,23.1659185 L16.9863504,23.1659185 Z M18,22.5351287 C19.1956028,23.2267475 20,24.5194352 20,26 C20,28.2091391 18.2091391,30 16,30 C13.7908609,30 12,28.2091391 12,26 C12,24.5194352 12.8043972,23.2267475 14,22.5351287 L14,4.00359486 C14,2.88976324 14.8954305,2 16,2 C17.1122704,2 18,2.89703997 18,4.00359486 L18,22.5351287 L18,22.5351287 L18,22.5351287 Z M19,21.9996337 C20.2144467,22.91184 21,24.3641821 21,26 C21,28.7614239 18.7614239,31 16,31 C13.2385761,31 11,28.7614239 11,26 C11,24.3641821 11.7855533,22.91184 13,21.9996337 L13,3.99075223 C13,2.34410858 14.3431458,1 16,1 C17.6534829,1 19,2.33900538 19,3.99075223 L19,21.9996337 L19,21.9996337 L19,21.9996337 Z" id="thermometer-quarter" sketch:type="MSShapeGroup"></path>
        </g>
    </g>
</svg>

<svg width="32" height="32" viewBox="0 0 32 32" xmlns="http://www.w3.org/2000/svg"><path d="M16.986 23.166A3.001 3.001 0 0 1 16 29a3 3 0 0 1-.986-5.834 1.02 1.02 0 0 1-.014-.169v-4.994A.994.994 0 0 1 16 17c.556 0 1 .449 1 1.003v4.994c0 .058-.005.114-.014.169zm1.014-.63a4 4 0 1 1-4 0V4.003C14 2.89 14.895 2 16 2c1.112 0 2 .897 2 2.004v18.531zM19 22a5 5 0 1 1-6 0V3.99A2.999 2.999 0 0 1 16 1c1.653 0 3 1.339 3 2.99V22z" fill="#929292" fill-rule="evenodd"/></svg>
